docs/svgs/1x-mobiledata-badge-outlined.svg

<svg xmlns="http://www.w3.org/2000/svg" width="24" height="24" viewBox="0 0 24 24"><path fill="currentColor" d="M3 21q-.825 0-1.413-.588T1 19V5q0-.825.588-1.413T3 3h18q.825 0 1.413.588T23 5v14q0 .825-.588 1.413T21 21H3Zm0-2h18V5H3v14Zm0 0V5v14Zm4-2h2V7H5v2h2v8Zm4.5 0h2l1.75-3.175L17 17h2l-2.75-5L19 7h-2l-1.75 3.175L13.5 7h-2l2.75 5l-2.75 5Z"/></svg>

<?xml version="1.0" encoding="UTF-8" standalone="no"?>
<svg
   height="24"
   viewBox="0 0 24 24"
   width="24"
   version="1.1"
   id="svg4"
   sodipodi:docname="1x-mobiledata-badge.svg"
   inkscape:version="1.2.1 (9c6d41e410, 2022-07-14)"
   xmlns:inkscape="http://www.inkscape.org/namespaces/inkscape"
   xmlns:sodipodi="http://sodipodi.sourceforge.net/DTD/sodipodi-0.dtd"
   xmlns="http://www.w3.org/2000/svg"
   xmlns:svg="http://www.w3.org/2000/svg">
  <defs
     id="defs8" />
  <sodipodi:namedview
     id="namedview6"
     pagecolor="#ffffff"
     bordercolor="#000000"
     borderopacity="0.25"
     inkscape:showpageshadow="2"
     inkscape:pageopacity="0.0"
     inkscape:pagecheckerboard="0"
     inkscape:deskcolor="#d1d1d1"
     showgrid="false"
     inkscape:zoom="19.666667"
     inkscape:cx="15.127119"
     inkscape:cy="12.177966"
     inkscape:window-width="1649"
     inkscape:window-height="925"
     inkscape:window-x="1709"
     inkscape:window-y="1067"
     inkscape:window-maximized="0"
     inkscape:current-layer="svg4" />
  <path
     d="M 3,21 Q 2.175,21 1.5875,20.4125 1,19.825 1,19 V 5 Q 1,4.175 1.5875,3.5875 2.175,3 3,3 H 21 Q 21.825,3 22.4125,3.5875 23,4.175 23,5 v 14 q 0,0.825 -0.5875,1.4125 Q 21.825,21 21,21 Z M 3,19 H 21 V 5 H 3 Z m 0,0 V 5 Z M 7,17 H 9 V 7 H 5 v 2 h 2 z m 4.5,0 h 2 L 15.25,13.825 17,17 h 2 L 16.25,12 19,7 H 17 L 15.25,10.175 13.5,7 h -2 l 2.75,5 z"
     id="path2"
     style="stroke-width:0.025" />
</svg>
